ion/extension-puzzle-sharp.svg

<svg viewBox="0 0 512 512" xmlns="http://www.w3.org/2000/svg"><path d="M345.14 480H256v-45.71l-.001 0c.02-8.55-3.44-16.73-9.59-22.65 -7.67-7.56-18.83-11.81-30.57-11.64l0 0c-10.45.09-20.52 3.87-28.45 10.67 -5.2 4.6-11.39 12.56-11.39 24.42V480H87.61v0c-30.71-.04-55.59-24.92-55.62-55.62V336H77.7c9.16 0 18.07-3.92 25.09-11h-.001c7.88-7.96 12.27-18.73 12.2-29.92 -.3-21.19-17.74-39.08-38.09-39.08H31.99v-89.34 0c-.06-14.72 5.91-28.81 16.53-39h-.001C59 117.54 73.03 111.92 87.61 112h63.24V97.52l0-.001c-.01-36.2 29.33-65.54 65.52-65.54 .38-.01.76 0 1.15.01 35.49.62 64.36 30.38 64.36 66.33v13.67h63.24v0c29.97-.33 54.53 23.71 54.86 53.69 0 .38 0 .77 0 1.16v63.24h13.66c36.58 0 66.34 29 66.34 64.64 0 36.61-29.39 66.4-65.52 66.4h-14.48v63.24c0 30.67-24.61 55.62-54.86 55.62Z"/></svg>

<svg xmlns="http://www.w3.org/2000/svg" viewBox="0 0 512 512"><path d="M345.14,480H256V434.29a31.3,31.3,0,0,0-9.59-22.65c-7.67-7.56-18.83-11.81-30.57-11.64a44.38,44.38,0,0,0-28.45,10.67c-5.2,4.6-11.39,12.56-11.39,24.42V480H87.62A55.68,55.68,0,0,1,32,424.38V336H77.71c9.16,0,18.07-3.92,25.09-11A42.06,42.06,0,0,0,115,295.08C114.7,273.89,97.26,256,76.91,256H32V166.66a53.77,53.77,0,0,1,16.53-39A55.88,55.88,0,0,1,87.62,112h63.24V97.52A65.53,65.53,0,0,1,217.54,32c35.49.62,64.36,30.38,64.36,66.33V112h63.24A54.28,54.28,0,0,1,400,166.86V230.1h13.66c36.58,0,66.34,29,66.34,64.64,0,36.61-29.39,66.4-65.52,66.4H400v63.24C400,455.05,375.39,480,345.14,480Z"/></svg>
